public/Snowman000.svg

<svg xmlns="http://www.w3.org/2000/svg" width="400" height="204" fill="none"><path fill="url(#a)" fill-rule="evenodd" d="M344.205 204c.522-2.582.795-5.254.795-8 0-24.024-19.477-43.5-43.5-43.5S258 171.976 258 196c0 2.746.236 5.418.688 8h85.517Z" clip-rule="evenodd"/><path fill="#833700" d="m261.877 119.5-2.139 1.294 12.422 20.535 2.139-1.294-12.422-20.535Z"/><path fill="#833700" d="m261.877 119.5-2.139 1.294 12.422 20.535 2.139-1.294-12.422-20.535Z"/><path fill="#833700" d="m259.982 125.321-1.781 1.754 14.035 14.249 1.781-1.754-14.035-14.249Z"/><path fill="#833700" d="m259.982 125.321-1.781 1.754 14.035 14.249 1.781-1.754-14.035-14.249Z"/><path fill="#833700" d="m258.818 131.142-.817 2.363 17.208 5.95.817-2.363-17.208-5.95Z"/><path fill="#833700" d="m258.818 131.142-.817 2.363 17.208 5.95.817-2.363-17.208-5.95ZM343.148 121.5l2.14 1.294-12.422 20.535-2.14-1.294 12.422-20.535Z"/><path fill="#833700" d="m343.148 121.5 2.14 1.294-12.422 20.535-2.14-1.294 12.422-20.535Z"/><path fill="#833700" d="m345.043 127.321 1.781 1.754-14.034 14.249-1.781-1.754 14.034-14.249Z"/><path fill="#833700" d="m345.043 127.321 1.781 1.754-14.034 14.249-1.781-1.754 14.034-14.249Z"/><path fill="#833700" d="m346.207 133.142.817 2.363-17.208 5.95-.817-2.363 17.208-5.95Z"/><path fill="#833700" d="m346.207 133.142.817 2.363-17.208 5.95-.817-2.363 17.208-5.95Z"/><path fill="url(#b)" d="M334 146c0 15.5-9.5 27-32.5 27S271 162.5 269 146c0-17.949 14.551-32.5 32.5-32.5 17.949 0 32.5 14.551 32.5 32.5Z"/><path fill="url(#c)" d="M323 113.5c0 12.15-9.714 22-21.912 22-12.199 0-22.088-9.85-22.088-22 2.254-14.816 9.889-22 22.088-22 12.198 0 20.284 8.98 21.912 22Z"/><path fill="url(#d)" d="m278.5 116.5 44.5-.5 8 15.989-28.748 2.511L272 131.989l6.5-15.489Z"/><path fill="#7EC4F3" d="m284 116.5 7-3 4 3 1 5.938-18 28.062 6-34Z"/><path fill="url(#e)" d="m283.961 116.506 12.039 6-8.783 30.956L270.974 147l12.987-30.494Z"/><path fill="#000" d="M311 105.5c0 1.657-.843 3-2.5 3s-3.5-1.343-3.5-3 .843-3 2.5-3 3.5 1.343 3.5 3Z"/><path fill="#fff" d="M310 104.5c0 .552-.281 1-.833 1-.553 0-1.167-.448-1.167-1s.281-1 .833-1c.553 0 1.167.448 1.167 1Z"/><path fill="#000" d="M289.8 105.902c-.5 2.098-2.143 2.5-3.8 2.5s-2-.843-2-2.5 1.843-3 3.5-3 2.3 1 2.3 3Z"/><path fill="#fff" d="M289 104.5c0 .552-.281 1-.833 1-.553 0-1.167-.448-1.167-1s.281-1 .833-1c.553 0 1.167.448 1.167 1Z"/><path fill="url(#f)" d="m279.627 108.875 18.492-1.072.625 1.294.221 1.23.053 1.238-.183 1.165-.183 1.165-.358.703-.587 1.101-.949.844-17.131-7.668Z"/><rect width="62" height="5" x="271" y="96.5" fill="url(#g)" rx="2"/><path fill="url(#h)" d="m278.5 40 6-3 5.5-2 6-1.5 6-.5 6 .5 6.5 1.5 6 2 5.5 3-4 56.5h-39L278.5 40Z"/><path fill="#000" d="M297 144.5a3 3 0 1 1-6 0c0-1.657 1.843-3 3.5-3s2.5 1.343 2.5 3ZM297 160.5c0 1.657-.843 3-2.5 3s-3.5-1.343-3.5-3 .843-3 2.5-3 3.5 1.343 3.5 3ZM297 186.5c0 1.657-1.843 3-3.5 3s-2.5-1.343-2.5-3 1.843-3 3.5-3 2.5 1.343 2.5 3ZM336.1 121.256l2.74-1.222 25.668 57.534-2.74 1.222z"/><path fill="#000" d="m336.1 121.536-.139-9.828 5.139-5.174 8.157-1.481 6.844 4.482-1.5 3-5.344-3.5-6.657.5-3.499 4-.178 7.911-2.823.09Z"/><defs><linearGradient id="d" x1="281.5" x2="316" y1="130.5" y2="125.5" gradientUnits="userSpaceOnUse"><stop offset=".41" stop-color="#4EA1D9"/><stop offset="1" stop-color="#7EC4F3"/></linearGradient><linearGradient id="e" x1="280.5" x2="294" y1="136" y2="129.5" gradientUnits="userSpaceOnUse"><stop stop-color="#4EA1D9"/><stop offset="1" stop-color="#7EC4F3"/></linearGradient><linearGradient id="f" x1="294.495" x2="293.963" y1="108.881" y2="115.631" gradientUnits="userSpaceOnUse"><stop offset=".28" stop-color="#E1AA2B"/><stop offset="1" stop-color="#856416"/></linearGradient><linearGradient id="g" x1="302" x2="302" y1="96.5" y2="101.5" gradientUnits="userSpaceOnUse"><stop offset=".365" stop-color="#4FA9E7"/><stop offset="1" stop-color="#1F5E89"/></linearGradient><linearGradient id="h" x1="322" x2="281" y1="67" y2="67" gradientUnits="userSpaceOnUse"><stop offset=".605" stop-color="#4FA9E7"/><stop offset="1" stop-color="#257BB5"/></linearGradient><radialGradient id="a" cx="0" cy="0" r="1" gradientTransform="rotate(108.263 86.584 207.798) scale(55.8627)" gradientUnits="userSpaceOnUse"><stop stop-color="#FFF9F9"/><stop offset="1" stop-color="#DCD9D9"/></radialGradient><radialGradient id="b" cx="0" cy="0" r="1" gradientTransform="rotate(153.768 136.25 113.19) scale(38.461)" gradientUnits="userSpaceOnUse"><stop offset=".42" stop-color="#F6F5F5"/><stop offset="1" stop-color="#CACACA"/></radialGradient><radialGradient id="c" cx="0" cy="0" r="1" gradientTransform="rotate(113.601 111.875 154.258) scale(24.0082 24.0732)" gradientUnits="userSpaceOnUse"><stop offset=".15" stop-color="#FFF6F6"/><stop offset="1" stop-color="#D9D7D7"/></radialGradient></defs></svg>

<svg width="400" height="204" viewBox="0 0 400 204" fill="none" xmlns="http://www.w3.org/2000/svg">
<path fill-rule="evenodd" clip-rule="evenodd" d="M344.205 204C344.727 201.418 345 198.746 345 196C345 171.976 325.523 152.5 301.5 152.5C277.477 152.5 258 171.976 258 196C258 198.746 258.236 201.418 258.688 204H344.205Z" fill="url(#paint0_radial_228_1754)"/>
<path d="M261.877 119.5L259.738 120.794L272.16 141.329L274.299 140.035L261.877 119.5Z" fill="#833700"/>
<path d="M261.877 119.5L259.738 120.794L272.16 141.329L274.299 140.035L261.877 119.5Z" fill="#833700"/>
<path d="M259.982 125.321L258.201 127.075L272.236 141.324L274.017 139.57L259.982 125.321Z" fill="#833700"/>
<path d="M259.982 125.321L258.201 127.075L272.236 141.324L274.017 139.57L259.982 125.321Z" fill="#833700"/>
<path d="M258.818 131.142L258.001 133.505L275.209 139.455L276.026 137.092L258.818 131.142Z" fill="#833700"/>
<path d="M258.818 131.142L258.001 133.505L275.209 139.455L276.026 137.092L258.818 131.142Z" fill="#833700"/>
<path d="M343.148 121.5L345.288 122.794L332.866 143.329L330.726 142.035L343.148 121.5Z" fill="#833700"/>
<path d="M343.148 121.5L345.288 122.794L332.866 143.329L330.726 142.035L343.148 121.5Z" fill="#833700"/>
<path d="M345.043 127.321L346.824 129.075L332.79 143.324L331.009 141.57L345.043 127.321Z" fill="#833700"/>
<path d="M345.043 127.321L346.824 129.075L332.79 143.324L331.009 141.57L345.043 127.321Z" fill="#833700"/>
<path d="M346.207 133.142L347.024 135.505L329.816 141.455L328.999 139.092L346.207 133.142Z" fill="#833700"/>
<path d="M346.207 133.142L347.024 135.505L329.816 141.455L328.999 139.092L346.207 133.142Z" fill="#833700"/>
<path d="M334 146C334 161.5 324.5 173 301.5 173C278.5 173 271 162.5 269 146C269 128.051 283.551 113.5 301.5 113.5C319.449 113.5 334 128.051 334 146Z" fill="url(#paint1_radial_228_1754)"/>
<path d="M323 113.5C323 125.65 313.286 135.5 301.088 135.5C288.889 135.5 279 125.65 279 113.5C281.254 98.6837 288.889 91.5 301.088 91.5C313.286 91.5 321.372 100.48 323 113.5Z" fill="url(#paint2_radial_228_1754)"/>
<path d="M278.5 116.5L323 116L331 131.989L302.252 134.5L272 131.989L278.5 116.5Z" fill="url(#paint3_linear_228_1754)"/>
<path d="M284 116.5L291 113.5L295 116.5L296 122.438L278 150.5L284 116.5Z" fill="#7EC4F3"/>
<path d="M283.961 116.506L296 122.506L287.217 153.462L270.974 147L283.961 116.506Z" fill="url(#paint4_linear_228_1754)"/>
<path d="M311 105.5C311 107.157 310.157 108.5 308.5 108.5C306.843 108.5 305 107.157 305 105.5C305 103.843 305.843 102.5 307.5 102.5C309.157 102.5 311 103.843 311 105.5Z" fill="black"/>
<path d="M310 104.5C310 105.052 309.719 105.5 309.167 105.5C308.614 105.5 308 105.052 308 104.5C308 103.948 308.281 103.5 308.833 103.5C309.386 103.5 310 103.948 310 104.5Z" fill="white"/>
<path d="M289.8 105.902C289.3 108 287.657 108.402 286 108.402C284.343 108.402 284 107.559 284 105.902C284 104.245 285.843 102.902 287.5 102.902C289.157 102.902 289.8 103.902 289.8 105.902Z" fill="black"/>
<path d="M289 104.5C289 105.052 288.719 105.5 288.167 105.5C287.614 105.5 287 105.052 287 104.5C287 103.948 287.281 103.5 287.833 103.5C288.386 103.5 289 103.948 289 104.5Z" fill="white"/>
<path d="M279.627 108.875L298.119 107.803L298.744 109.097L298.965 110.327L299.018 111.565L298.835 112.73L298.652 113.895L298.294 114.598L297.707 115.699L296.758 116.543L279.627 108.875Z" fill="url(#paint5_linear_228_1754)"/>
<rect x="271" y="96.5" width="62" height="5" rx="2" fill="url(#paint6_linear_228_1754)"/>
<path d="M278.5 40L284.5 37L290 35L296 33.5L302 33L308 33.5L314.5 35L320.5 37L326 40L322 96.5H283L278.5 40Z" fill="url(#paint7_linear_228_1754)"/>
<path d="M297 144.5C297 146.157 295.657 147.5 294 147.5C292.343 147.5 291 146.157 291 144.5C291 142.843 292.843 141.5 294.5 141.5C296.157 141.5 297 142.843 297 144.5Z" fill="black"/>
<path d="M297 160.5C297 162.157 296.157 163.5 294.5 163.5C292.843 163.5 291 162.157 291 160.5C291 158.843 291.843 157.5 293.5 157.5C295.157 157.5 297 158.843 297 160.5Z" fill="black"/>
<path d="M297 186.5C297 188.157 295.157 189.5 293.5 189.5C291.843 189.5 291 188.157 291 186.5C291 184.843 292.843 183.5 294.5 183.5C296.157 183.5 297 184.843 297 186.5Z" fill="black"/>
<rect x="336.1" y="121.256" width="3" height="63" transform="rotate(-24.0435 336.1 121.256)" fill="black"/>
<path d="M336.1 121.536L335.961 111.708L341.1 106.534L349.257 105.053L356.101 109.535L354.601 112.535L349.257 109.035L342.6 109.535L339.101 113.535L338.923 121.446L336.1 121.536Z" fill="black"/>
<defs>
<radialGradient id="paint0_radial_228_1754" cx="0" cy="0" r="1" gradientUnits="userSpaceOnUse" gradientTransform="translate(311.049 190.695) rotate(108.263) scale(55.8627 55.8627)">
<stop stop-color="#FFF9F9"/>
<stop offset="1" stop-color="#DCD9D9"/>
</radialGradient>
<radialGradient id="paint1_radial_228_1754" cx="0" cy="0" r="1" gradientUnits="userSpaceOnUse" gradientTransform="translate(308.5 154.5) rotate(153.768) scale(38.461 38.461)">
<stop offset="0.42" stop-color="#F6F5F5"/>
<stop offset="1" stop-color="#CACACA"/>
</radialGradient>
<radialGradient id="paint2_radial_228_1754" cx="0" cy="0" r="1" gradientUnits="userSpaceOnUse" gradientTransform="translate(298.02 113.5) rotate(113.601) scale(24.0082 24.0732)">
<stop offset="0.15" stop-color="#FFF6F6"/>
<stop offset="1" stop-color="#D9D7D7"/>
</radialGradient>
<linearGradient id="paint3_linear_228_1754" x1="281.5" y1="130.5" x2="316" y2="125.5" gradientUnits="userSpaceOnUse">
<stop offset="0.41" stop-color="#4EA1D9"/>
<stop offset="1" stop-color="#7EC4F3"/>
</linearGradient>
<linearGradient id="paint4_linear_228_1754" x1="280.5" y1="136" x2="294" y2="129.5" gradientUnits="userSpaceOnUse">
<stop stop-color="#4EA1D9"/>
<stop offset="1" stop-color="#7EC4F3"/>
</linearGradient>
<linearGradient id="paint5_linear_228_1754" x1="294.495" y1="108.881" x2="293.963" y2="115.631" gradientUnits="userSpaceOnUse">
<stop offset="0.28" stop-color="#E1AA2B"/>
<stop offset="1" stop-color="#856416"/>
</linearGradient>
<linearGradient id="paint6_linear_228_1754" x1="302" y1="96.5" x2="302" y2="101.5" gradientUnits="userSpaceOnUse">
<stop offset="0.365" stop-color="#4FA9E7"/>
<stop offset="1" stop-color="#1F5E89"/>
</linearGradient>
<linearGradient id="paint7_linear_228_1754" x1="322" y1="67" x2="281" y2="67" gradientUnits="userSpaceOnUse">
<stop offset="0.605" stop-color="#4FA9E7"/>
<stop offset="1" stop-color="#257BB5"/>
</linearGradient>
</defs>
</svg>
